2 Export/Icons/Rounded/Smile, Sentiment Satisfied Alt.svg

<svg xmlns="http://www.w3.org/2000/svg" xmlns:xlink="http://www.w3.org/1999/xlink" width="24" height="24" viewBox="0 0 24 24">
  <defs>
    <path id="smile,-sentiment-satisfied-alt-a" d="M11.99 2C17.52 2 22 6.48 22 12s-4.48 10-10.01 10C6.47 22 2 17.52 2 12S6.47 2 11.99 2zm3.51 9a1.5 1.5 0 1 1 0-3 1.5 1.5 0 0 1 0 3zm-7 0a1.5 1.5 0 1 1 0-3 1.5 1.5 0 0 1 0 3zm3.5 9c4.42 0 8-3.58 8-8s-3.58-8-8-8-8 3.58-8 8 3.58 8 8 8zm4.41-6.11c.35.22.46.68.24 1.03-1.02 1.61-2.75 2.58-4.65 2.58-1.9 0-3.63-.96-4.65-2.59a.747.747 0 1 1 1.27-.79C9.36 15.3 10.62 16 12 16s2.64-.7 3.38-1.87c.21-.35.68-.46 1.03-.24z"/>
  </defs>
  <g fill="none" fill-rule="evenodd">
    <polygon points="0 0 24 0 24 24 0 24"/>
    <mask id="smile,-sentiment-satisfied-alt-b" fill="#fff">
      <use xlink:href="#smile,-sentiment-satisfied-alt-a"/>
    </mask>
    <use fill="#000" xlink:href="#smile,-sentiment-satisfied-alt-a"/>
    <g fill="#000" mask="url(#smile,-sentiment-satisfied-alt-b)">
      <rect width="24" height="24"/>
    </g>
  </g>
</svg>

<svg xmlns="http://www.w3.org/2000/svg" xmlns:xlink="http://www.w3.org/1999/xlink" width="24" height="24" viewBox="0 0 24 24">
  <defs>
    <path id="smile,-sentiment-satisfied-alt-a" d="M11.99,2 C17.52,2 22,6.48 22,12 C22,17.52 17.52,22 11.99,22 C6.47,22 2,17.52 2,12 C2,6.48 6.47,2 11.99,2 Z M15.5,11 C14.6715729,11 14,10.3284271 14,9.5 C14,8.67157288 14.6715729,8 15.5,8 C16.3284271,8 17,8.67157288 17,9.5 C17,10.3284271 16.3284271,11 15.5,11 Z M8.5,11 C7.67157288,11 7,10.3284271 7,9.5 C7,8.67157288 7.67157288,8 8.5,8 C9.32842712,8 10,8.67157288 10,9.5 C10,10.3284271 9.32842712,11 8.5,11 Z M12,20 C16.42,20 20,16.42 20,12 C20,7.58 16.42,4 12,4 C7.58,4 4,7.58 4,12 C4,16.42 7.58,20 12,20 Z M16.41,13.89 C16.76,14.11 16.87,14.57 16.65,14.92 C15.63,16.53 13.9,17.5 12,17.5 C10.1,17.5 8.37,16.54 7.35,14.91 C7.13,14.56 7.24,14.1 7.59,13.88 C7.94,13.66 8.4,13.77 8.62,14.12 C9.36,15.3 10.62,16 12,16 C13.38,16 14.64,15.3 15.38,14.13 C15.59,13.78 16.06,13.67 16.41,13.89 Z"/>
  </defs>
  <g fill="none" fill-rule="evenodd">
    <polygon points="0 0 24 0 24 24 0 24"/>
    <mask id="smile,-sentiment-satisfied-alt-b" fill="#fff">
      <use xlink:href="#smile,-sentiment-satisfied-alt-a"/>
    </mask>
    <use fill="#000" xlink:href="#smile,-sentiment-satisfied-alt-a"/>
    <g fill="#000" mask="url(#smile,-sentiment-satisfied-alt-b)">
      <rect width="24" height="24"/>
    </g>
  </g>
</svg>
